X: 5167
T: Bring Back The Child
R: jig
M: 6/8
K: Gmajor
gfe d2B|cAA BGG|gfe d2B|cAF G3|
gfe d2B|cAA BGG|EFG A2B|cAF G2D||
EFG A2B|cAA BGG|EFG A2B|cAF G2D|
EFG A2B|cAA BGG|gfe d2B|cAF G3||

